static/img/07- shopping-bag-box.svg

<svg viewBox="0 0 100 112" xmlns="http://www.w3.org/2000/svg"><circle cx="50" cy="56" fill="#e8f4fa" r="40"/><path d="m74.77 47.19a1.45 1.45 0 0 0 -1.44-1.33h-23.43a1.45 1.45 0 0 0 -1.44 1.33l-2.67 30.69a1.21 1.21 0 0 0 1.21 1.31h29.24a1.21 1.21 0 0 0 1.2-1.31z" fill="#ffe500"/><path d="m47.06 63.22 17.36-17.36h-14.52a1.45 1.45 0 0 0 -1.44 1.33z" fill="#fff48c"/><g stroke="#191816" stroke-linejoin="round"><path d="m74.77 47.19a1.45 1.45 0 0 0 -1.44-1.33h-23.43a1.45 1.45 0 0 0 -1.44 1.33l-2.67 30.69a1.21 1.21 0 0 0 1.21 1.31h29.24a1.21 1.21 0 0 0 1.2-1.31z" fill="none"/><path d="m54.37 50.21v-8.69a7.25 7.25 0 1 1 14.49 0v8.69" fill="none" stroke-linecap="round"/><path d="m65.96 45.86v7.97" fill="none" stroke-linecap="round"/><path d="m68.86 64.94a1.21 1.21 0 0 1 -1.21 1.21h-3.38a1.21 1.21 0 0 1 -1.21-1.21v-8.94a1.2 1.2 0 0 1 .67-1l2.27-1.17 2.19 1.17a1.2 1.2 0 0 1 .67 1z" fill="#ff6242" stroke-linecap="round"/><path d="m45.76 35.63a1.45 1.45 0 0 0 -1.45-1.36h-13.21a1.45 1.45 0 0 0 -1.45 1.36l-1.36 21.83h18.83zm-4.43 4.44h-7.25a1.45 1.45 0 1 1 0-2.9h7.25a1.45 1.45 0 1 1 0 2.9z" fill="#6dd627"/><path d="m35.95 57.45 10.52-10.51-.31-4.88-15.4 15.39z" fill="#c8ffa1"/><path d="m28.61 52.22 12.16-12.15h-5.19l-6.62 6.62z" fill="#c8ffa1"/><path d="m41.33 37.17a1.46 1.46 0 0 1 1.37 1l3-3a1.45 1.45 0 0 0 -1.35-.91h-2.97l-2.9 2.9z" fill="#c8ffa1"/></g><path d="m49.3 63.25h-23.19v14.75a1.21 1.21 0 0 0 1.21 1.21h20.77a1.21 1.21 0 0 0 1.21-1.21z" fill="#4acfff"/><path d="m26.11 63.25h23.18v2.9h-23.18z" fill="#00b8f0"/><path d="m49.3 63.25h-23.19v14.75a1.21 1.21 0 0 0 1.21 1.21h20.77a1.21 1.21 0 0 0 1.21-1.21z" fill="none" stroke="#191816" stroke-linejoin="round"/><rect fill="#4acfff" height="5.8" rx="1" stroke="#191816" stroke-linejoin="round" width="26.08" x="24.66" y="57.46"/></svg>

<svg id="Multicolor" xmlns="http://www.w3.org/2000/svg" viewBox="0 0 100 112"><defs><style>.cls-1{fill:#e8f4fa;}.cls-2{fill:#ffe500;}.cls-3{fill:#fff48c;}.cls-4,.cls-5{fill:none;}.cls-11,.cls-4,.cls-5,.cls-6,.cls-7,.cls-8{stroke:#191816;stroke-linejoin:round;}.cls-5,.cls-6{stroke-linecap:round;}.cls-6{fill:#ff6242;}.cls-7{fill:#6dd627;}.cls-8{fill:#c8ffa1;}.cls-11,.cls-9{fill:#4acfff;}.cls-10{fill:#00b8f0;}</style></defs><title>07- shopping-bag-box</title><g id="Background"><g id="New_Symbol_1" data-name="New Symbol 1"><circle class="cls-1" cx="50" cy="56" r="40"/></g></g><g id="Scene"><path class="cls-2" d="M74.77,47.19a1.45,1.45,0,0,0-1.44-1.33H49.9a1.45,1.45,0,0,0-1.44,1.33L45.79,77.88A1.21,1.21,0,0,0,47,79.19H76.24a1.21,1.21,0,0,0,1.2-1.31Z"/><path class="cls-3" d="M47.06,63.22,64.42,45.86H49.9a1.45,1.45,0,0,0-1.44,1.33Z"/><path class="cls-4" d="M74.77,47.19a1.45,1.45,0,0,0-1.44-1.33H49.9a1.45,1.45,0,0,0-1.44,1.33L45.79,77.88A1.21,1.21,0,0,0,47,79.19H76.24a1.21,1.21,0,0,0,1.2-1.31Z"/><path class="cls-5" d="M54.37,50.21V41.52a7.25,7.25,0,1,1,14.49,0v8.69"/><line class="cls-5" x1="65.96" y1="45.86" x2="65.96" y2="53.83"/><path class="cls-6" d="M68.86,64.94a1.21,1.21,0,0,1-1.21,1.21H64.27a1.21,1.21,0,0,1-1.21-1.21V56A1.2,1.2,0,0,1,63.73,55L66,53.83,68.19,55A1.2,1.2,0,0,1,68.86,56Z"/><path class="cls-7" d="M45.76,35.63a1.45,1.45,0,0,0-1.45-1.36H31.1a1.45,1.45,0,0,0-1.45,1.36L28.29,57.46H47.12Zm-4.43,4.44H34.08a1.45,1.45,0,1,1,0-2.9h7.25a1.45,1.45,0,1,1,0,2.9Z"/><polygon class="cls-8" points="35.95 57.45 46.47 46.94 46.16 42.06 30.76 57.45 35.95 57.45"/><polygon class="cls-8" points="28.61 52.22 40.77 40.07 35.58 40.07 28.96 46.69 28.61 52.22"/><path class="cls-8" d="M41.33,37.17a1.46,1.46,0,0,1,1.37,1l3-3a1.45,1.45,0,0,0-1.35-.91H41.38l-2.9,2.9Z"/><path class="cls-9" d="M49.3,63.25H26.11V78a1.21,1.21,0,0,0,1.21,1.21H48.09A1.21,1.21,0,0,0,49.3,78Z"/><rect class="cls-10" x="26.11" y="63.25" width="23.18" height="2.9"/><path class="cls-4" d="M49.3,63.25H26.11V78a1.21,1.21,0,0,0,1.21,1.21H48.09A1.21,1.21,0,0,0,49.3,78Z"/><rect class="cls-11" x="24.66" y="57.46" width="26.08" height="5.8" rx="1" ry="1"/></g></svg>
